X: 34804
T: Road To Taynuilt, The
R: reel
M: 4/4
K: Gmajor
g|:dBAE G3g|dBgg dBcd|e2 cB c3B|ABcd edge|
dBAE G3g|dBgg dBcd|e2 dB dgdB|1 A2 GA BG G2:|2 A2 GA Bded||
|:g3d egdB|GABd edBd|e2 cB c3B|ABcd edBd|
g3d egdB|GABd edBd|e2 dB dgdB|1 A2 GA Bded:|2 A2 GA BGGg||
|:b3g ab g2|ed B2 AGBd|e2 dB dgdB|A2 GA Bdeg|
b3g ab g2|ed B2 AGBd|e2 dB dgdB|A2 GA BGGA|
|:EEDE E2 GB|AAGA AGED|EEDE E2 GB|AAGA AGED|
EEDE E2 GB|AAGA AGED|EEDE E2 GB|AAGA AGED||

